tipitek/img/benefit-icon-1.svg

<svg width="48" height="48" viewBox="0 0 48 48" fill="none" xmlns="http://www.w3.org/2000/svg">
<g clip-path="url(#clip0_746_3986)">
<path d="M41.285 14.2303H6.71544C5.47034 14.2303 4.46094 15.2398 4.46094 16.4848V44.2908H43.5396V16.4849C43.5395 15.2398 42.5302 14.2303 41.285 14.2303Z" fill="#C3DDFF"/>
<path d="M39.7814 40.5332H8.21784C7.38778 40.5332 6.71484 39.8603 6.71484 39.0302V17.9879C6.71484 17.1578 7.38778 16.4849 8.21784 16.4849H39.7813C40.6114 16.4849 41.2843 17.1578 41.2843 17.9879V39.0302C41.2844 39.8603 40.6115 40.5332 39.7814 40.5332Z" fill="#DBEAFF"/>
<path d="M19.4904 17.9879L15.5242 22.6152C15.1739 23.0238 14.9814 23.5443 14.9814 24.0824V26.2544L21.745 22.4968L19.4904 17.9879Z" fill="#FF8086"/>
<path d="M18.6784 24.2007L21.745 22.497L19.4905 17.9879L17.2617 20.5883C17.6145 21.8365 18.0928 23.0433 18.6784 24.2007Z" fill="#E5646E"/>
<path d="M28.5095 17.9879L32.4758 22.6152C32.826 23.0238 33.0185 23.5443 33.0185 24.0824V26.2544L26.2549 22.4968L28.5095 17.9879Z" fill="#FF8086"/>
<path d="M0.703125 42.7877V44.2907C0.703125 45.1208 1.37606 45.7937 2.20613 45.7937H45.7938C46.6238 45.7937 47.2968 45.1208 47.2968 44.2907V42.7877H0.703125Z" fill="#DAD8DB"/>
<path d="M24.5414 2.76418C24.2523 2.45247 23.7473 2.45247 23.4583 2.76418C20.5472 5.90359 18.7393 10.2121 18.7393 14.9819C18.7393 18.6104 19.7897 21.9686 21.5719 24.7516H26.4278C28.21 21.9686 29.2604 18.6104 29.2604 14.9819C29.2604 10.212 27.4524 5.90359 24.5414 2.76418Z" fill="#FFE07D"/>
<path d="M23.5503 22.4969C23.2516 22.4969 22.9763 22.3107 22.849 22.0223C21.8673 19.7996 21.3695 17.4308 21.3695 14.9819C21.3695 12.6266 21.8557 10.3324 22.7481 8.21826H20.0267C19.1997 10.2959 18.7393 12.5798 18.7393 14.9819C18.7393 18.6104 19.7897 21.9686 21.5719 24.7515H26.4278C26.8856 24.0367 27.2931 23.2827 27.649 22.497L23.5503 22.4969Z" fill="#FFD064"/>
<path d="M27.0063 27.7576H20.9941L21.5723 24.7515H26.4282L27.0063 27.7576Z" fill="#C8C5C9"/>
<path d="M23.9996 16.4848C25.2447 16.4848 26.2541 15.4755 26.2541 14.2303C26.2541 12.9852 25.2447 11.9758 23.9996 11.9758C22.7545 11.9758 21.7451 12.9852 21.7451 14.2303C21.7451 15.4755 22.7545 16.4848 23.9996 16.4848Z" fill="#C3DDFF"/>
<path d="M20.0264 8.21823H27.9727C27.1575 6.17026 25.9861 4.32263 24.5411 2.76413C24.2521 2.45232 23.7471 2.45232 23.458 2.76413C22.013 4.32263 20.8416 6.17026 20.0264 8.21823Z" fill="#FF8086"/>
<path d="M22.7499 8.21823C23.4324 6.59776 24.3313 5.11876 25.4342 3.82107C25.1481 3.45788 24.8546 3.10126 24.5421 2.76413C24.253 2.45232 23.7481 2.45232 23.459 2.76413C22.0139 4.32254 20.8425 6.17016 20.0273 8.21823H22.7499Z" fill="#E5646E"/>
<path d="M34.5207 36.0241C33.9176 36.0241 33.3405 36.1306 32.8009 36.3175C32.2953 34.8392 30.9096 33.7695 29.2601 33.7695C28.3403 33.7695 27.5088 34.113 26.8556 34.6618C26.9443 34.3781 27.0056 34.0825 27.0056 33.7695C27.0056 32.1093 25.6599 30.7634 23.9996 30.7634C22.3392 30.7634 20.9935 32.1093 20.9935 33.7695C20.9935 34.0824 21.0548 34.3781 21.1435 34.6618C20.4903 34.113 19.6587 33.7695 18.739 33.7695C17.0895 33.7695 15.7037 34.8392 15.1982 36.3175C14.6586 36.1306 14.0815 36.0241 13.4784 36.0241C10.5731 36.0241 8.21777 38.3793 8.21777 41.2847C8.21777 41.8074 8.29662 42.3112 8.43846 42.7877H39.5606C39.7065 42.3 39.7809 41.7938 39.7812 41.2847C39.7813 38.3793 37.4261 36.0241 34.5207 36.0241Z" fill="white"/>
<path d="M23.9998 11.9758C22.9807 11.9758 22.1299 12.6563 21.8506 13.5842C22.0566 13.5222 22.2706 13.4788 22.4968 13.4788C23.742 13.4788 24.7513 14.4882 24.7513 15.7333C24.7513 15.9595 24.7079 16.1735 24.646 16.3795C25.574 16.1003 26.2544 15.2493 26.2544 14.2302C26.2543 12.9852 25.245 11.9758 23.9998 11.9758Z" fill="#A4CCFF"/>
<path d="M47.2969 42.0846H44.2424V16.4848C44.2424 14.854 42.9157 13.5272 41.2848 13.5272H32.267C32.0805 13.5272 31.9016 13.6013 31.7698 13.7332C31.6379 13.865 31.5638 14.0439 31.5638 14.2303C31.5638 14.4168 31.6379 14.5957 31.7698 14.7275C31.9016 14.8594 32.0805 14.9335 32.267 14.9335H41.2848C42.1403 14.9335 42.8362 15.6295 42.8362 16.4848V42.0847H40.4295C40.466 41.8196 40.4845 41.5524 40.4848 41.2848C40.4848 37.9964 37.8095 35.3211 34.5211 35.3211C34.079 35.3211 33.6375 35.3716 33.2023 35.4717C32.4437 34.0099 30.9325 33.0665 29.2606 33.0665C28.7223 33.0656 28.1886 33.1649 27.6866 33.3592C27.4818 31.5063 25.9066 30.0604 24 30.0604C22.0934 30.0604 20.5182 31.5063 20.3134 33.3592C19.8114 33.1649 19.2777 33.0656 18.7394 33.0665C17.0675 33.0665 15.5562 34.0099 14.7977 35.4717C14.3652 35.3718 13.9228 35.3213 13.4789 35.3211C10.1904 35.3211 7.51519 37.9964 7.51519 41.2848C7.51519 41.5521 7.53422 41.8192 7.5705 42.0847H5.16384V16.4848C5.16384 15.6294 5.85975 14.9335 6.71522 14.9335H15.7333C15.9198 14.9335 16.0986 14.8594 16.2305 14.7275C16.3624 14.5957 16.4364 14.4168 16.4364 14.2303C16.4364 14.0439 16.3624 13.865 16.2305 13.7332C16.0986 13.6013 15.9198 13.5272 15.7333 13.5272H6.71522C5.08434 13.5272 3.75759 14.8541 3.75759 16.4848V42.0847H0.703125C0.516645 42.0847 0.337802 42.1588 0.205941 42.2906C0.074079 42.4225 0 42.6013 0 42.7878L0 44.2908C0 45.5073 0.989719 46.4969 2.20613 46.4969H45.7939C47.0104 46.4969 48 45.5072 48 44.2908V42.7878C48 42.6955 47.9818 42.604 47.9465 42.5187C47.9112 42.4334 47.8594 42.3559 47.7941 42.2906C47.7288 42.2253 47.6513 42.1735 47.566 42.1381C47.4807 42.1028 47.3892 42.0846 47.2969 42.0846ZM46.5938 44.2908C46.5938 44.7319 46.2349 45.0907 45.7939 45.0907H2.20613C1.76503 45.0907 1.40625 44.7318 1.40625 44.2908V43.4909H10.4725C10.659 43.4909 10.8379 43.4169 10.9697 43.285C11.1016 43.1531 11.1757 42.9743 11.1757 42.7878C11.1757 42.6013 11.1016 42.4225 10.9697 42.2906C10.8379 42.1588 10.659 42.0847 10.4725 42.0847H8.99334C8.94562 41.8207 8.92153 41.553 8.92134 41.2848C8.92134 38.7718 10.9658 36.7273 13.4788 36.7273C13.9793 36.7273 14.4805 36.813 14.9685 36.982C15.056 37.0123 15.1486 37.025 15.241 37.0194C15.3334 37.0138 15.4238 36.99 15.507 36.9495C15.5902 36.9089 15.6645 36.8523 15.7258 36.7829C15.7871 36.7135 15.834 36.6327 15.864 36.5451C16.2878 35.3056 17.4434 34.4728 18.7395 34.4728C19.4502 34.4728 20.1252 34.7244 20.6917 35.2003C20.8081 35.2982 20.9531 35.3556 21.1049 35.3641C21.2567 35.3725 21.4071 35.3315 21.5337 35.2472C21.6602 35.163 21.7561 35.0399 21.8068 34.8966C21.8575 34.7533 21.8604 34.5973 21.8151 34.4522C21.7346 34.1948 21.6971 33.9779 21.6971 33.7697C21.6971 32.4999 22.7302 31.4668 24 31.4668C25.2698 31.4668 26.3029 32.5 26.3029 33.7697C26.3029 33.9779 26.2654 34.1948 26.1849 34.4522C26.1396 34.5973 26.1425 34.7533 26.1932 34.8966C26.2439 35.0399 26.3398 35.163 26.4663 35.2472C26.5929 35.3315 26.7433 35.3725 26.8951 35.3641C27.0469 35.3556 27.1919 35.2982 27.3083 35.2003C27.8748 34.7245 28.5499 34.4728 29.2605 34.4728C30.5566 34.4728 31.7122 35.3056 32.136 36.5451C32.166 36.6327 32.2129 36.7135 32.2742 36.7829C32.3355 36.8523 32.4098 36.9089 32.493 36.9495C32.6611 37.0316 32.8549 37.0433 33.0315 36.982C33.5195 36.813 34.0206 36.7273 34.5212 36.7273C37.0343 36.7273 39.0787 38.7718 39.0787 41.2848C39.0787 41.5521 39.0543 41.8197 39.0067 42.0847H13.4791C13.2926 42.0847 13.1138 42.1588 12.9819 42.2906C12.85 42.4225 12.776 42.6013 12.776 42.7878C12.776 42.9743 12.85 43.1531 12.9819 43.285C13.1138 43.4169 13.2926 43.4909 13.4791 43.4909H46.5938V44.2908Z" fill="black"/>
<path d="M14.9638 22.1713C14.5213 22.7031 14.2788 23.3729 14.2783 24.0648V26.2546C14.2784 26.441 14.3525 26.6198 14.4843 26.7517C14.6162 26.8835 14.795 26.9576 14.9814 26.9577C15.1025 26.9577 15.2216 26.9265 15.327 26.8669L20.3342 24.0416C20.5253 24.3906 20.7277 24.7333 20.9409 25.0692L20.3115 27.587C20.2856 27.6907 20.2836 27.7989 20.3057 27.9035C20.3279 28.008 20.3736 28.1061 20.4393 28.1904C20.5051 28.2746 20.5892 28.3428 20.6853 28.3896C20.7813 28.4365 20.8868 28.4608 20.9936 28.4608H27.0057C27.1126 28.4608 27.218 28.4364 27.3141 28.3896C27.4101 28.3427 27.4942 28.2746 27.56 28.1903C27.6257 28.1061 27.6714 28.008 27.6936 27.9035C27.7157 27.7989 27.7138 27.6907 27.6879 27.587L27.0584 25.0692C27.2717 24.7333 27.4741 24.3906 27.6652 24.0416L32.6723 26.8669C32.7793 26.9274 32.9002 26.9587 33.0231 26.9578C33.146 26.9569 33.2664 26.9238 33.3725 26.8618C33.4786 26.7998 33.5666 26.7112 33.6277 26.6047C33.6889 26.4981 33.721 26.3774 33.721 26.2546V24.0648C33.7206 23.3729 33.4781 22.7031 33.0355 22.1713L29.6977 18.1671C29.8747 17.1146 29.9636 16.0492 29.9634 14.9819C29.9634 12.4177 29.467 9.93917 28.488 7.6152C27.5438 5.37382 26.1997 3.38539 24.493 1.7051C24.3615 1.57562 24.1843 1.50305 23.9998 1.50305C23.8152 1.50305 23.638 1.57562 23.5065 1.7051C21.7999 3.38529 20.4558 5.37373 19.5115 7.6152C18.5325 9.93926 18.0361 12.4177 18.0361 14.9819C18.0361 16.0561 18.1258 17.1194 18.301 18.1623L14.9638 22.1713ZM15.6846 25.0504V24.0648C15.6848 23.7019 15.812 23.3505 16.0441 23.0716L18.6796 19.909C18.9423 20.8931 19.2852 21.854 19.7049 22.7821L15.6846 25.0504ZM21.8941 27.0544L22.294 25.4547H25.7051L26.1051 27.0544H21.8941ZM31.955 23.0716C32.1871 23.3505 32.3143 23.7019 32.3145 24.0648V25.0504L28.2942 22.782C28.7139 21.8539 29.0568 20.893 29.3195 19.9089L31.955 23.0716ZM23.9995 3.21467C25.1803 4.48395 26.1542 5.93932 26.8943 7.51517H21.1047C21.8449 5.93932 22.8188 4.48395 23.9995 3.21467ZM20.5188 8.92132H27.4802C28.1919 10.8627 28.5564 12.9141 28.5569 14.9818C28.5569 18.215 27.6871 21.3411 26.0377 24.0484H21.9613C20.3119 21.3411 19.4421 18.215 19.4421 14.9818C19.4421 12.8929 19.8158 10.8381 20.5188 8.92132Z" fill="black"/>
<path d="M26.9572 14.2303C26.9572 12.5995 25.6305 11.2727 23.9996 11.2727C22.3687 11.2727 21.042 12.5995 21.042 14.2303C21.042 15.8611 22.3687 17.188 23.9996 17.188C25.6305 17.188 26.9572 15.8612 26.9572 14.2303ZM22.4482 14.2303C22.4482 13.3749 23.1441 12.679 23.9996 12.679C24.8551 12.679 25.551 13.375 25.551 14.2303C25.551 15.0857 24.8551 15.7817 23.9996 15.7817C23.1441 15.7817 22.4482 15.0858 22.4482 14.2303Z" fill="black"/>
</g>
<defs>
<clipPath id="clip0_746_3986">
<rect width="48" height="48" fill="white"/>
</clipPath>
</defs>
</svg>

<svg width="48" height="48" fill="none" xmlns="http://www.w3.org/2000/svg"><g clip-path="url(#clip0_746_3986)"><path d="M41.285 14.23H6.715a2.255 2.255 0 0 0-2.254 2.255V44.29H43.54V16.485a2.255 2.255 0 0 0-2.255-2.255z" fill="#C3DDFF"/><path d="M39.781 40.533H8.218c-.83 0-1.503-.673-1.503-1.503V17.988c0-.83.673-1.503 1.503-1.503H39.78c.83 0 1.503.673 1.503 1.503V39.03c0 .83-.672 1.503-1.503 1.503z" fill="#DBEAFF"/><path d="M19.49 17.988l-3.966 4.627c-.35.409-.543.93-.543 1.467v2.172l6.764-3.757-2.255-4.51z" fill="#FF8086"/><path d="M18.678 24.2l3.067-1.703-2.255-4.51-2.228 2.601a20.132 20.132 0 0 0 1.416 3.613z" fill="#E5646E"/><path d="M28.51 17.988l3.966 4.627c.35.409.543.93.543 1.467v2.172l-6.764-3.757 2.255-4.51z" fill="#FF8086"/><path d="M.703 42.788v1.503c0 .83.673 1.503 1.503 1.503h43.588c.83 0 1.503-.673 1.503-1.503v-1.503H.703z" fill="#DAD8DB"/><path d="M24.541 2.764a.744.744 0 0 0-1.083 0c-2.91 3.14-4.719 7.448-4.719 12.218 0 3.628 1.05 6.987 2.833 9.77h4.856c1.782-2.783 2.832-6.142 2.832-9.77 0-4.77-1.808-9.078-4.719-12.218z" fill="#FFE07D"/><path d="M23.55 22.497a.776.776 0 0 1-.701-.475 17.387 17.387 0 0 1-.1-13.804h-2.722a18.256 18.256 0 0 0-1.288 6.764c0 3.628 1.05 6.987 2.833 9.77h4.856c.458-.715.865-1.47 1.221-2.255H23.55z" fill="#FFD064"/><path d="M27.006 27.758h-6.012l.578-3.006h4.856l.578 3.006z" fill="#C8C5C9"/><path d="M24 16.485a2.254 2.254 0 1 0 0-4.51 2.254 2.254 0 0 0 0 4.51z" fill="#C3DDFF"/><path d="M20.026 8.218h7.947a17.585 17.585 0 0 0-3.432-5.454.744.744 0 0 0-1.083 0 17.585 17.585 0 0 0-3.432 5.454z" fill="#FF8086"/><path d="M22.75 8.218c.682-1.62 1.581-3.1 2.684-4.397-.286-.363-.58-.72-.892-1.057a.744.744 0 0 0-1.083 0 17.582 17.582 0 0 0-3.432 5.454h2.723z" fill="#E5646E"/><path d="M34.52 36.024a5.24 5.24 0 0 0-1.72.294 3.746 3.746 0 0 0-3.54-2.548c-.92 0-1.751.343-2.404.892.088-.284.15-.58.15-.892a3.006 3.006 0 1 0-6.012 0c0 .312.06.608.15.892a3.724 3.724 0 0 0-2.405-.892 3.745 3.745 0 0 0-3.54 2.547 5.24 5.24 0 0 0-1.72-.293 5.26 5.26 0 0 0-5.04 6.764H39.56a5.255 5.255 0 0 0-5.04-6.764z" fill="#fff"/><path d="M24 11.976c-1.02 0-1.87.68-2.15 1.608a2.23 2.23 0 0 1 .647-.105 2.254 2.254 0 0 1 2.254 2.254c0 .226-.043.44-.105.646A2.247 2.247 0 0 0 24 11.977z" fill="#A4CCFF"/><path d="M47.297 42.085h-3.055v-25.6a2.96 2.96 0 0 0-2.957-2.958h-9.018a.703.703 0 1 0 0 1.407h9.018c.855 0 1.551.696 1.551 1.55v25.6H40.43c.037-.264.055-.532.056-.8a5.97 5.97 0 0 0-5.964-5.963c-.442 0-.883.05-1.319.15a4.447 4.447 0 0 0-3.941-2.404 4.34 4.34 0 0 0-1.574.292A3.714 3.714 0 0 0 24 30.06a3.714 3.714 0 0 0-3.687 3.3 4.34 4.34 0 0 0-1.574-.294 4.447 4.447 0 0 0-3.941 2.406c-.433-.1-.875-.15-1.32-.15a5.97 5.97 0 0 0-5.907 6.763H5.163v-25.6c0-.856.696-1.551 1.551-1.551h9.018a.703.703 0 0 0 0-1.407H6.715a2.961 2.961 0 0 0-2.957 2.958v25.6H.703a.703.703 0 0 0-.703.703v1.503c0 1.216.99 2.206 2.206 2.206h43.588c1.216 0 2.206-.99 2.206-2.206v-1.503a.704.704 0 0 0-.703-.703zm-.703 2.206a.8.8 0 0 1-.8.8H2.206a.8.8 0 0 1-.8-.8v-.8h9.066a.703.703 0 1 0 0-1.406H8.994a4.563 4.563 0 0 1 4.485-5.357c.501 0 1.002.085 1.49.254a.703.703 0 0 0 .896-.437 3.047 3.047 0 0 1 2.875-2.072c.711 0 1.386.251 1.953.727a.703.703 0 0 0 1.123-.748 2.257 2.257 0 0 1-.118-.682A2.306 2.306 0 0 1 24 31.467a2.306 2.306 0 0 1 2.303 2.303c0 .208-.038.425-.118.682a.704.704 0 0 0 1.123.748 3.009 3.009 0 0 1 1.953-.727c1.296 0 2.451.833 2.875 2.072a.703.703 0 0 0 .895.437c.489-.169.99-.255 1.49-.255a4.563 4.563 0 0 1 4.486 5.358H13.479a.703.703 0 0 0 0 1.406h33.115v.8z" fill="#000"/><path d="M14.964 22.171a2.964 2.964 0 0 0-.686 1.894v2.19a.704.704 0 0 0 1.049.612l5.007-2.825c.191.349.394.691.607 1.027l-.63 2.518a.705.705 0 0 0 .683.874h6.012a.704.704 0 0 0 .682-.874l-.63-2.518c.214-.336.416-.678.607-1.027l5.007 2.825a.702.702 0 0 0 1.049-.612v-2.19c0-.692-.243-1.362-.685-1.894l-3.338-4.004c.177-1.052.266-2.118.265-3.185a18.87 18.87 0 0 0-1.475-7.367 18.11 18.11 0 0 0-3.995-5.91.703.703 0 0 0-.986 0 18.11 18.11 0 0 0-3.995 5.91 18.871 18.871 0 0 0-1.476 7.367c0 1.074.09 2.137.265 3.18l-3.337 4.01zm.72 2.88v-.986c0-.363.128-.715.36-.993l2.636-3.163a18.64 18.64 0 0 0 1.025 2.873l-4.02 2.268zm6.21 2.003l.4-1.6h3.411l.4 1.6h-4.21zm10.061-3.982c.232.279.36.63.36.993v.985l-4.02-2.268a18.64 18.64 0 0 0 1.024-2.873l2.636 3.163zM24 3.215a16.79 16.79 0 0 1 2.894 4.3h-5.79A16.794 16.794 0 0 1 24 3.215zM20.519 8.92h6.961a17.62 17.62 0 0 1 1.077 6.06c0 3.234-.87 6.36-2.52 9.067h-4.076c-1.65-2.707-2.519-5.833-2.519-9.066 0-2.09.374-4.144 1.077-6.06z" fill="#000"/><path d="M26.957 14.23A2.96 2.96 0 0 0 24 11.273a2.96 2.96 0 0 0-2.958 2.957A2.961 2.961 0 0 0 24 17.188a2.96 2.96 0 0 0 2.957-2.958zm-4.509 0c0-.855.696-1.551 1.552-1.551.855 0 1.551.696 1.551 1.551 0 .856-.696 1.552-1.551 1.552a1.553 1.553 0 0 1-1.552-1.552z" fill="#000"/></g><defs><clipPath id="clip0_746_3986"><path fill="#fff" d="M0 0h48v48H0z"/></clipPath></defs></svg>
